dist/img/paw-shadow.svg

<svg width="111" height="96" viewBox="0 0 111 96" fill="none" xmlns="http://www.w3.org/2000/svg">
  <g filter="url(#filter0_d_77_2400)">
    <path d="M79.6827 52.403C72.8883 44.1984 64.3002 39.6798 55.4999 39.6798C46.6997 39.6798 38.1114 44.1984 31.3174 52.403C25.2104 59.7778 21.5645 69.0722 21.5645 77.2654C21.5645 81.2455 22.781 84.277 25.1802 86.2763C27.5482 88.2498 30.6746 88.9173 34.1625 88.9171C37.8739 88.9171 41.995 88.1612 46.044 87.4183C49.5823 86.7691 52.9242 86.156 55.5001 86.156C57.7234 86.156 60.8581 86.7379 64.1762 87.354C71.9309 88.794 80.7206 90.4258 85.798 86.2035C88.2118 84.1964 89.4356 81.189 89.4356 77.2654C89.4358 69.0722 85.7899 59.7778 79.6827 52.403Z" fill="#FF8A00" />
    <path d="M80.3777 7.85106C77.8917 4.18527 74.332 2.08301 70.6112 2.08301C66.8901 2.08301 63.3306 4.18547 60.8446 7.85106C58.561 11.2186 57.3032 15.6409 57.3032 20.3034C57.3032 24.966 58.5608 29.3883 60.8446 32.7558C63.3306 36.4214 66.8903 38.5239 70.6112 38.5239C74.3322 38.5239 77.8917 36.4214 80.3777 32.7558C82.6613 29.3883 83.9191 24.966 83.9191 20.3034C83.9191 15.6409 82.6615 11.2184 80.3777 7.85106Z" fill="#FF8A00" />
    <path d="M50.156 7.85087C47.67 4.18508 44.1105 2.08282 40.3895 2.08282C36.6684 2.08282 33.1087 4.18528 30.6229 7.85087C28.3393 11.2184 27.0815 15.6407 27.0815 20.3033C27.0815 24.9658 28.3391 29.3881 30.6229 32.7557C33.1089 36.4214 36.6684 38.5239 40.3895 38.5239C44.1105 38.5239 47.67 36.4214 50.156 32.7557C52.4396 29.3881 53.6974 24.966 53.6974 20.3033C53.6972 15.6407 52.4396 11.2182 50.156 7.85087Z" fill="#FF8A00" />
    <path d="M105.405 36.4519C104.402 33.0424 102.254 30.5649 99.3564 29.4762C97.0242 28.6002 94.3917 28.7487 91.9436 29.8946C88.5699 31.4735 85.8124 34.734 84.3784 38.8396C83.2067 42.1947 83.0605 45.741 83.9672 48.8256C84.9694 52.2352 87.1175 54.7126 90.0157 55.8013C91.0186 56.1781 92.0768 56.3653 93.1521 56.3653C94.5775 56.3653 96.0331 56.0361 97.4286 55.3829C100.802 53.804 103.56 50.5436 104.994 46.4381V46.4379C106.165 43.083 106.312 39.5366 105.405 36.4519Z" fill="#FF8A00" />
    <path d="M26.6222 38.8393C25.1881 34.7336 22.4305 31.4734 19.057 29.8945C16.6087 28.7486 13.976 28.6002 11.6441 29.4761C8.74588 30.565 6.59778 33.0424 5.59563 36.4518C4.68893 39.5364 4.83508 43.0829 6.00687 46.4378V46.438C7.44117 50.5436 10.1985 53.8038 13.5721 55.3828C14.9677 56.0359 16.4231 56.3651 17.8485 56.3651C18.9239 56.3651 19.9822 56.1777 20.985 55.8012C23.8836 54.7123 26.0315 52.2348 27.0336 48.8255C27.9399 45.741 27.7938 42.1946 26.6222 38.8393Z" fill="#FF8A00" />
  </g>
  <defs>
    <filter id="filter0_d_77_2400" x="-0.992188" y="0.0828247" width="112.985" height="98.8343" filterUnits="userSpaceOnUse" color-interpolation-filters="sRGB">
      <feFlood flood-opacity="0" result="BackgroundImageFix" />
      <feColorMatrix in="SourceAlpha" type="matrix" values="0 0 0 0 0 0 0 0 0 0 0 0 0 0 0 0 0 0 127 0" result="hardAlpha" />
      <feOffset dy="4" />
      <feGaussianBlur stdDeviation="3" />
      <feComposite in2="hardAlpha" operator="out" />
      <feColorMatrix type="matrix" values="0 0 0 0 0 0 0 0 0 0 0 0 0 0 0 0 0 0 0.25 0" />
      <feBlend mode="normal" in2="BackgroundImageFix" result="effect1_dropShadow_77_2400" />
      <feBlend mode="normal" in="SourceGraphic" in2="effect1_dropShadow_77_2400" result="shape" />
    </filter>
  </defs>
</svg>

<svg width="111" height="96" fill="none" xmlns="http://www.w3.org/2000/svg"><g filter="url(#a)" fill="#FF8A00"><path d="M79.683 52.403C72.888 44.198 64.3 39.68 55.5 39.68S38.11 44.198 31.317 52.403c-6.107 7.375-9.753 16.67-9.753 24.862 0 3.98 1.217 7.012 3.616 9.011 2.368 1.974 5.495 2.641 8.983 2.641 3.71 0 7.832-.756 11.881-1.499 3.538-.649 6.88-1.262 9.456-1.262 2.223 0 5.358.582 8.676 1.198 7.755 1.44 16.545 3.072 21.622-1.15 2.414-2.008 3.638-5.015 3.638-8.939 0-8.193-3.646-17.487-9.753-24.862ZM80.378 7.851c-2.486-3.666-6.046-5.768-9.767-5.768-3.72 0-7.28 2.102-9.766 5.768-2.284 3.368-3.542 7.79-3.542 12.452 0 4.663 1.258 9.085 3.542 12.453 2.486 3.665 6.045 5.768 9.766 5.768s7.28-2.103 9.767-5.768c2.283-3.368 3.541-7.79 3.541-12.453 0-4.662-1.257-9.085-3.541-12.452ZM50.156 7.85c-2.486-3.665-6.045-5.767-9.767-5.767-3.72 0-7.28 2.102-9.766 5.768-2.284 3.367-3.542 7.79-3.542 12.452 0 4.663 1.258 9.085 3.542 12.453 2.486 3.665 6.045 5.768 9.766 5.768s7.281-2.103 9.767-5.768c2.284-3.368 3.541-7.79 3.541-12.453 0-4.662-1.257-9.085-3.541-12.452ZM105.405 36.452c-1.003-3.41-3.151-5.887-6.049-6.976-2.332-.876-4.964-.727-7.412.419-3.374 1.579-6.132 4.839-7.566 8.945-1.171 3.355-1.317 6.901-.41 9.986 1.001 3.41 3.15 5.887 6.048 6.975a8.895 8.895 0 0 0 3.136.564c1.425 0 2.881-.329 4.277-.982 3.373-1.579 6.131-4.84 7.565-8.945 1.171-3.355 1.318-6.901.411-9.986ZM26.622 38.84c-1.434-4.106-4.192-7.367-7.565-8.946-2.448-1.145-5.081-1.294-7.413-.418-2.898 1.089-5.046 3.566-6.048 6.976-.907 3.084-.76 6.63.41 9.986 1.435 4.106 4.192 7.366 7.566 8.945 1.396.653 2.851.982 4.277.982a8.901 8.901 0 0 0 3.136-.564c2.899-1.089 5.047-3.566 6.049-6.976.906-3.084.76-6.63-.412-9.986Z"/></g><defs><filter id="a" x="-.992" y=".083" width="112.985" height="98.834" filterUnits="userSpaceOnUse" color-interpolation-filters="sRGB"><feFlood flood-opacity="0" result="BackgroundImageFix"/><feColorMatrix in="SourceAlpha" values="0 0 0 0 0 0 0 0 0 0 0 0 0 0 0 0 0 0 127 0" result="hardAlpha"/><feOffset dy="4"/><feGaussianBlur stdDeviation="3"/><feComposite in2="hardAlpha" operator="out"/><feColorMatrix values="0 0 0 0 0 0 0 0 0 0 0 0 0 0 0 0 0 0 0.25 0"/><feBlend in2="BackgroundImageFix" result="effect1_dropShadow_77_2400"/><feBlend in="SourceGraphic" in2="effect1_dropShadow_77_2400" result="shape"/></filter></defs></svg>
